X:1
T:En un lieu où
T:En un lieu où
T:Jean de Castro
T:Source : Livre de chansons à 3 parties---Paris---A.le Roy & R.Ballard---1575. Editor : André Vierendeels (20/09/15).
T:Notes : Original clefs : G2, C1, C3 Editorial accidentals above the staff
C:Jean de Castro
%%score [ 1 2 3 ]
L:1/8
Q:1/4=86
M:2/2
K:C
V:1 treble nm="Superius 1" snm="S 1"
V:2 treble nm="Superius 2" snm="S 2"
V:3 treble-8 nm="Tenor" snm="T"
V:1
 c4 c4 | d4 z2 e2 | f2 e4 d2 | e4 c2 g2- | g2 f2 e2 e2 | d4 e4 | z2 d4 c2 | B2 e2 d4 | e4 z2 g2- | %9
w: En un|lieu où|l'on ne voit|gout- te, où|_ l'on ne voit|gout- te,|où l'on|ne voit gout-|te, je|
 g2 f2 e2 d2 | e8 | z2 c4 B2 | A2 A2 f2 d2- | d2 B2 A4 | B4 z2 g2 | g2 g2 e2 e2 | c2 c2 f4 | %17
w: _ n'i- ray ja-|mais,|je n'i-|ray ja- mais sans|_ lu- miè-|re, car|tant de- vant com-|me der- riè-|
 d4 z2 g2 | g2 g2 e2 e2 | c2 c2 A4 | G2 g2 e4 | f4 d4 | e4 A4- | A2 d2 ^c4 | d8 | z4 z2 d2- | %26
w: re, car|tant de- vant com-|me der- riè-|re, on en|a bien|sou- vent|_ la gout-|te,|puis-|
 d2 c4 B2 | A2 G2 A2 A2 | G4 G4 | z2 g2 e4- | e2 c2 z2 g2 | e4 d4 | z2 e4 f2 | d2 c2 d4 | %34
w: * que du|per- tuis je me|doub- te|chan- del-|* le, chan-|del- le|ne me|se- ra chè-|
 e4 c2 c2 | d4 z2 e2 | f2 e4 d2 | e4 c2 g2- | g2 f2 e2 e2 | d4 e4 | z2 d4 c2 | B2 e2 d4 | %42
w: re: en un|lieu où|l'on ne voit|gout- te, où|_ l'on ne voit|gout- te,|où l'on|ne voit gout-|
 e4 z2 g2- | g2 f2 e2 d2 | e8 | z2 c4 B2 | A2 A2 f2 d2- | d2 B2 A4 | !fermata!B8 |] %49
w: te, je|_ n'i- ray ja-|mais,|je n'i-|ray ja- mais sans|_ lu- miè-|re.|
V:2
 z8 | G4 G4 | A4 z2 B2 | c2 G4 c2 | A4 G4 | z2 B4 c2 | d2 B4 c2 | d2 c2 B4 | c2 c4 B2 | c2 A2 G4- | %10
w: |En un|lieu où|l'on ne voit|gout- te,|en un|lieu où l'on|ne voit gout-|te, le n'i-|ray ja- mais,|
 G4 z2 G2- | G2 F2 G4 | c6 B2 | A2 G2 ^F4 | GFED C4 | z2 c2 c2 c2 | A2 A2 F2 F2 | G4 C4 | %18
w: _ je|_ n'i- ray|ja- mais|sans lu- miè-|* * * * re,|car tant de-|vant com- me der-|riè- re,|
 z2 c2 c2 G2 | A2 A2 F2 F2 | G2 C2 z2 c2- | c2 A4 B2 | c2 G2 F4- | F2 F2 E4 | ^F4 z2 A2 | %25
w: car tant de-|vant com- me der-|riè- re, on|_ en a|bien sou- vent|_ la gout-|te, puis-|
"^-natural" G2 F2 E2 D2 | E2 F2 D3 E | ^F2 G4 F2 | G2 G2 E4 | C4 z2 G2 | E4 C4 | z2 c2 B4 | %32
w: que du per- tuis|je me doub- *||te, chan- del-|le, chan-|del- le,|chan- del-|
 G4 z2 A2 | B2 c4 B2 | c4 G4 | z2 G4 G2 | A4 z2 B2 | c2 G4 c2 | A4 G4 | z2 B4 c2 | d2 B4 c2 | %41
w: le ne|me se- ra|chè- re:|en un|lieu où|l'on ne voit|gout- te,|en un|lieu où l'on|
 d2 c2 B4 | c2 c4 B2 | c2 A2 G4- | G4 z2 G2- | G2 F2 G4 | c6 B2 | A2 G2 ^F4 | !fermata!G8 |] %49
w: ne voit gout-|te, je n'i-|ray ja- mais,|_ je|_ n'i- ray|ja- mais|sans lu- miè-|re.|
V:3
 z8 | z8 | z8 | c4 c4 | d4 z2 e2 | f2 g4 a2 | g8- | g8 | c4 z4 | z8 | z2 c4 B2 | A4 G4 | F2 f4 g2 | %13
w: |||En un|lieu où|l'on ne voit|gout-||te,||je n'i-|ray ja-|mais sans lu-|
 d8 | G2 g2 g2 g2 | e2 e2 c2 c2 | f4 d4 | z2 g2 g2 g2 | e2 e2 c2 c2 | A4 d4 | z2 g4 a2- | %21
w: miè-|re, car tant de-|vant com- me der-|riè- re,|car tant de-|vant com- me der-|riè- re,|on en|
 a2 f4 g2 | z2 c2 d4- | d2 d2 A4 | d8 | z2 d2 c2 B2 | A4 G4 | d2 e2 d4 | e4 z2 g2 | e4 c4 | %30
w: _ a bien|sou- vent|_ la gout-|te,|puis- que du|per- tuis|je me doub-|te, chan-|del- le,|
 z2 g2 e4 | c4 z2 g2 | e2 c2 c2 F2 | G2 A2 G4 | c8 | z8 | z8 | c4 c4 | d4 z2 e2 | f2 g4 a2 | g8- | %41
w: chan- del-|le, chan-|del- le ne me|se- ra chè-|re:|||en un|lieu où|l'on ne voit|gout-|
 g8 | c4 z4 | z8 | z2 c4 B2 | A4 G4 | F2 f4 g2 | d8 | !fermata!G8 |] %49
w: |te,||je n'i-|ray ja-|mais sans lu-||re.|

